X:1
T:The Theory of Everything
T:The Theory of Everything
T:Composed: J贸hann J贸hannsson Transcribed: Dominik Smreczak
C:J贸hann J贸hannsson
%%score 1 { ( 2 3 ) | 4 }
L:1/8
Q:1/4=100
M:4/4
K:D
V:1 treble nm="Violin" snm="Vln."
V:2 treble nm="Piano" snm="Pno."
V:3 treble 
V:4 bass 
V:1
"^\n" z8 | z8 | z8 | z8 | z8 | z4!p!!<(! e4 | f8-!<)! |!mf! f4 g4 |!f! f4 d4 |!>(! f8!>)! | %10
!f! f4 d4 |!>(! f8!>)! |!p! d8- | d4 e4 | f8- | f4!<(! g4!<)! |!f! f4 d4 |!>(! f8!>)! |!f! f4 d4 | %19
!>(! f8!>)! |!p! d8- | d8- | d8- | d4!mf! e4 |!>(! d8- | d8- | d8- | d8!>)! |] %28
V:2
!mf!!ped! F8!ped!!ped-up! |!ped! F4-!ped! G4!ped-up! |!ped! F4!ped! z4!ped-up! | %3
!ped! F4-!ped! G4!ped-up! |!ped! F4!ped! z4!ped-up! |!ped! F4-!ped! G4!ped-up! | %6
!ped! F4!ped! z4!ped-up! |!ped! F4!ped! G4!ped-up! |!f!!ped! x8!ped!!ped-up! | %9
!>(!!ped! x8!ped!!>)!!ped-up! |!f!!ped! x8!ped!!ped-up! |!>(!!ped! x8!ped!!>)!!ped-up! | %12
!mf!!ped! D!ped!FA, D2 FA,D!ped-up! |!ped!!>(! D!ped!dDd DdD!ppp!d!ped-up!!>)!!ped-up! | %14
!mf!!ped! F!ped!DA, G,2 D3!ped-up! |!ped!!>(! D!ped!dDd DdD!ppp!d!ped-up!!>)!!ped-up! | %16
!f!!ped! x8!ped!!ped-up! |!>(!!ped! x8!ped!!>)!!ped-up! |!f!!ped! x8!ped!!ped-up! | %19
!>(!!ped! x8!ped!!>)!!ped-up! |!f!!ped! D!ped!FA, D2 FA,D!ped-up! | %21
!ped!!>(! D!ped!dDd DdD!>)!!ppp!d!ped-up! |!mf!!ped! F!ped!DA, G,2 D3!ped-up! | %23
!ped! [DF]2!ped! FD [DG]2 GD!ped-up! |!ped! [DA]8-!ped! | [DA]8- | [DA]8- | [DA]8!ped-up! |] %28
V:3
 z A,DA, FA,DA, | FA,DA, GA,DA, | FA,DA, FA,DA, | FA,DA, GA,DA, | FA,DA, AA,DA, | FA,DA, GA,DA, | %6
 FA,DA, AA,DA, | FA,DA, GA,DA, | FfFf AaAa | DdDd DdD!ppp!d | FfFf AaAa | DdDd DdD!ppp!d | x8 | %13
 x8 | x8 | x8 | FfFf AaAa | DdDd DdD!ppp!d | FfFf AaAa | DdDd DdD!ppp!d | x8 | x8 | x8 | x8 | x8 | %25
 x8 | x8 | x8 |] %28
V:4
 [D,,D,]8 | [F,,F,]4 [F,,G,]4 | [D,,D,]8 | [F,,F,]4 [F,,G,]4 | [D,,D,]8 | [F,,F,]4 [F,,G,]4 | %6
 [D,,D,]8 | [F,,F,]4 [F,,G,]4 | B,,F,B,D D,A,DF | G,,D,G,B, z4 | B,,F,B,D D,A,DF | G,,D,G,B, z4 | %12
 [D,,D,]8 | [F,,F,]4 [F,,G,]4 | [D,,D,]6 D,,E,, | [F,,F,]4 [F,,G,]4 | B,,F,B,D D,A,DF | %17
 G,,D,G,B, z4 | B,,F,B,D D,A,DF | G,,D,G,B, z4 | [D,,D,]6 D,,E,, | [F,,F,]4 [G,,G,]4 | %22
 [D,,D,]6 D,,E,, | [F,,F,]4 [G,,G,]4 | [D,,A,,D,]8- | [D,,A,,D,]8- | [D,,A,,D,]8- | [D,,A,,D,]8 |] %28

